static/img/kroki/812dbae6c2cbda5276d7a4ec746cd010.svg

<?xml version="1.0" encoding="us-ascii" standalone="no"?><svg xmlns="http://www.w3.org/2000/svg" xmlns:xlink="http://www.w3.org/1999/xlink" contentStyleType="text/css" height="352px" preserveAspectRatio="none" style="width:522px;height:352px;" version="1.1" viewBox="0 0 522 352" width="522px" zoomAndPan="magnify"><defs/><g><!--class aws_iam_group--><g id="elem_aws_iam_group"><rect codeLine="22" fill="#3D176E" height="39.7891" id="aws_iam_group" rx="2.5" ry="2.5" style="stroke:#000D19;stroke-width:0.5;" width="173" x="7" y="106.79"/><ellipse cx="22" cy="126.6845" fill="#ADD1B2" rx="11" ry="11" style="stroke:#181818;stroke-width:1.0;"/><path d="M24.9688,132.3252 Q24.3906,132.622 23.75,132.7627 Q23.1094,132.9189 22.4063,132.9189 Q19.9063,132.9189 18.5781,131.2783 Q17.2656,129.622 17.2656,126.497 Q17.2656,123.372 18.5781,121.7158 Q19.9063,120.0595 22.4063,120.0595 Q23.1094,120.0595 23.75,120.2158 Q24.4063,120.372 24.9688,120.6689 L24.9688,123.3877 Q24.3438,122.8095 23.75,122.5439 Q23.1563,122.2627 22.5313,122.2627 Q21.1875,122.2627 20.5,123.3408 Q19.8125,124.4033 19.8125,126.497 Q19.8125,128.5908 20.5,129.6689 Q21.1875,130.7314 22.5313,130.7314 Q23.1563,130.7314 23.75,130.4658 Q24.3438,130.1845 24.9688,129.6064 L24.9688,132.3252 Z " fill="#000000"/><text fill="#D9B8FF" font-family="Helvetica" font-size="17" lengthAdjust="spacing" textLength="131" x="41" y="132.5698">aws_iam_group</text></g><!--class aws_iam_policy--><g id="elem_aws_iam_policy"><rect codeLine="24" fill="#3D176E" height="39.7891" id="aws_iam_policy" rx="2.5" ry="2.5" style="stroke:#000D19;stroke-width:0.5;" width="173" x="151" y="306.37"/><ellipse cx="166" cy="326.2645" fill="#ADD1B2" rx="11" ry="11" style="stroke:#181818;stroke-width:1.0;"/><path d="M168.9688,331.9052 Q168.3906,332.202 167.75,332.3427 Q167.1094,332.4989 166.4063,332.4989 Q163.9063,332.4989 162.5781,330.8583 Q161.2656,329.202 161.2656,326.077 Q161.2656,322.952 162.5781,321.2958 Q163.9063,319.6395 166.4063,319.6395 Q167.1094,319.6395 167.75,319.7958 Q168.4063,319.952 168.9688,320.2489 L168.9688,322.9677 Q168.3438,322.3895 167.75,322.1239 Q167.1563,321.8427 166.5313,321.8427 Q165.1875,321.8427 164.5,322.9208 Q163.8125,323.9833 163.8125,326.077 Q163.8125,328.1708 164.5,329.2489 Q165.1875,330.3114 166.5313,330.3114 Q167.1563,330.3114 167.75,330.0458 Q168.3438,329.7645 168.9688,329.1864 L168.9688,331.9052 Z " fill="#000000"/><text fill="#D9B8FF" font-family="Helvetica" font-size="17" lengthAdjust="spacing" textLength="131" x="185" y="332.1498">aws_iam_policy</text></g><!--class aws_iam_role--><g id="elem_aws_iam_role"><rect codeLine="26" fill="#3D176E" height="39.7891" id="aws_iam_role" rx="2.5" ry="2.5" style="stroke:#000D19;stroke-width:0.5;" width="157" x="358" y="206.58"/><ellipse cx="373" cy="226.4745" fill="#ADD1B2" rx="11" ry="11" style="stroke:#181818;stroke-width:1.0;"/><path d="M375.9688,232.1152 Q375.3906,232.412 374.75,232.5527 Q374.1094,232.7089 373.4063,232.7089 Q370.9063,232.7089 369.5781,231.0683 Q368.2656,229.412 368.2656,226.287 Q368.2656,223.162 369.5781,221.5058 Q370.9063,219.8495 373.4063,219.8495 Q374.1094,219.8495 374.75,220.0058 Q375.4063,220.162 375.9688,220.4589 L375.9688,223.1777 Q375.3438,222.5995 374.75,222.3339 Q374.1563,222.0527 373.5313,222.0527 Q372.1875,222.0527 371.5,223.1308 Q370.8125,224.1933 370.8125,226.287 Q370.8125,228.3808 371.5,229.4589 Q372.1875,230.5214 373.5313,230.5214 Q374.1563,230.5214 374.75,230.2558 Q375.3438,229.9745 375.9688,229.3964 L375.9688,232.1152 Z " fill="#000000"/><text fill="#D9B8FF" font-family="Helvetica" font-size="17" lengthAdjust="spacing" textLength="115" x="392" y="232.3598">aws_iam_role</text></g><!--class aws_iam_user--><g id="elem_aws_iam_user"><rect codeLine="28" fill="#3D176E" height="39.7891" id="aws_iam_user" rx="2.5" ry="2.5" style="stroke:#000D19;stroke-width:0.5;" width="161" x="91" y="206.58"/><ellipse cx="106" cy="226.4745" fill="#ADD1B2" rx="11" ry="11" style="stroke:#181818;stroke-width:1.0;"/><path d="M108.9688,232.1152 Q108.3906,232.412 107.75,232.5527 Q107.1094,232.7089 106.4063,232.7089 Q103.9063,232.7089 102.5781,231.0683 Q101.2656,229.412 101.2656,226.287 Q101.2656,223.162 102.5781,221.5058 Q103.9063,219.8495 106.4063,219.8495 Q107.1094,219.8495 107.75,220.0058 Q108.4063,220.162 108.9688,220.4589 L108.9688,223.1777 Q108.3438,222.5995 107.75,222.3339 Q107.1563,222.0527 106.5313,222.0527 Q105.1875,222.0527 104.5,223.1308 Q103.8125,224.1933 103.8125,226.287 Q103.8125,228.3808 104.5,229.4589 Q105.1875,230.5214 106.5313,230.5214 Q107.1563,230.5214 107.75,230.2558 Q108.3438,229.9745 108.9688,229.3964 L108.9688,232.1152 Z " fill="#000000"/><text fill="#D9B8FF" font-family="Helvetica" font-size="17" lengthAdjust="spacing" textLength="119" x="125" y="232.3598">aws_iam_user</text></g><!--class aws_region--><g id="elem_aws_region"><rect codeLine="30" fill="#3D176E" height="39.7891" id="aws_region" rx="2.5" ry="2.5" style="stroke:#000D19;stroke-width:0.5;" width="137" x="200" y="7"/><ellipse cx="215" cy="26.8945" fill="#ADD1B2" rx="11" ry="11" style="stroke:#181818;stroke-width:1.0;"/><path d="M217.9688,32.5352 Q217.3906,32.832 216.75,32.9727 Q216.1094,33.1289 215.4063,33.1289 Q212.9063,33.1289 211.5781,31.4883 Q210.2656,29.832 210.2656,26.707 Q210.2656,23.582 211.5781,21.9258 Q212.9063,20.2695 215.4063,20.2695 Q216.1094,20.2695 216.75,20.4258 Q217.4063,20.582 217.9688,20.8789 L217.9688,23.5977 Q217.3438,23.0195 216.75,22.7539 Q216.1563,22.4727 215.5313,22.4727 Q214.1875,22.4727 213.5,23.5508 Q212.8125,24.6133 212.8125,26.707 Q212.8125,28.8008 213.5,29.8789 Q214.1875,30.9414 215.5313,30.9414 Q216.1563,30.9414 216.75,30.6758 Q217.3438,30.3945 217.9688,29.8164 L217.9688,32.5352 Z " fill="#000000"/><text fill="#D9B8FF" font-family="Helvetica" font-size="17" lengthAdjust="spacing" textLength="95" x="234" y="32.7798">aws_region</text></g><!--link aws_iam_group to aws_iam_policy--><g id="link_aws_iam_group_aws_iam_policy"><path codeLine="32" d="M82.7,146.94 C70.34,171.82 54.15,215.59 73.5,246.37 C91.83,275.53 118.6661,292.0424 149.8961,303.8224 " fill="none" id="aws_iam_group-to-aws_iam_policy" style="stroke:#1A83AF;stroke-width:2.0;"/><polygon fill="#1A83AF" points="155.51,305.94,148.5009,299.021,150.8317,304.1754,145.6774,306.5062,155.51,305.94" style="stroke:#1A83AF;stroke-width:2.0;"/></g><!--link aws_iam_group to aws_iam_user--><g id="link_aws_iam_group_aws_iam_user"><path codeLine="33" d="M108.91,147.01 C122.58,164.15 138.7205,184.3679 152.3805,201.5079 " fill="none" id="aws_iam_group-to-aws_iam_user" style="stroke:#1A83AF;stroke-width:2.0;"/><polygon fill="#1A83AF" points="156.12,206.2,153.6389,196.6688,153.0038,202.2899,147.3827,201.6548,156.12,206.2" style="stroke:#1A83AF;stroke-width:2.0;"/></g><!--link aws_iam_role to aws_iam_policy--><g id="link_aws_iam_role_aws_iam_policy"><path codeLine="34" d="M397.18,246.8 C362.3,263.94 316.9847,286.2032 282.1147,303.3432 " fill="none" id="aws_iam_role-to-aws_iam_policy" style="stroke:#1A83AF;stroke-width:2.0;"/><polygon fill="#1A83AF" points="276.73,305.99,286.5715,305.6096,281.2172,303.7844,283.0425,298.4301,276.73,305.99" style="stroke:#1A83AF;stroke-width:2.0;"/></g><!--link aws_iam_user to aws_iam_policy--><g id="link_aws_iam_user_aws_iam_policy"><path codeLine="35" d="M184.54,246.8 C196.11,263.94 209.5751,283.8756 221.1351,301.0156 " fill="none" id="aws_iam_user-to-aws_iam_policy" style="stroke:#1A83AF;stroke-width:2.0;"/><polygon fill="#1A83AF" points="224.49,305.99,222.7738,296.2918,221.6942,301.8447,216.1413,300.7651,224.49,305.99" style="stroke:#1A83AF;stroke-width:2.0;"/></g><!--link aws_region to aws_iam_group--><g id="link_aws_region_aws_iam_group"><path codeLine="36" d="M233.93,47.22 C203.25,64.36 163.8979,86.3535 133.2379,103.4835 " fill="none" id="aws_region-to-aws_iam_group" style="stroke:#1A83AF;stroke-width:2.0;"/><polygon fill="#1A83AF" points="128,106.41,137.8079,105.5122,132.3649,103.9713,133.9059,98.5284,128,106.41" style="stroke:#1A83AF;stroke-width:2.0;"/></g><!--link aws_region to aws_iam_policy--><g id="link_aws_region_aws_iam_policy"><path codeLine="37" d="M271.09,47.13 C275.71,85.47 283.63,173.96 269.5,246.37 C265.34,267.7 258.0684,285.1611 250.3584,300.7611 " fill="none" id="aws_region-to-aws_iam_policy" style="stroke:#1A83AF;stroke-width:2.0;"/><polygon fill="#1A83AF" points="247.7,306.14,255.2736,299.8439,249.9154,301.6576,248.1017,296.2993,247.7,306.14" style="stroke:#1A83AF;stroke-width:2.0;"/></g><!--link aws_region to aws_iam_role--><g id="link_aws_region_aws_iam_role"><path codeLine="38" d="M284.91,47.2 C317.03,84.97 383.9631,163.6892 416.1331,201.5192 " fill="none" id="aws_region-to-aws_iam_role" style="stroke:#1A83AF;stroke-width:2.0;"/><polygon fill="#1A83AF" points="420.02,206.09,417.2368,196.6426,416.7809,202.281,411.1425,201.8251,420.02,206.09" style="stroke:#1A83AF;stroke-width:2.0;"/></g><!--link aws_region to aws_iam_user--><g id="link_aws_region_aws_iam_user"><path codeLine="39" d="M259.02,47.2 C240.48,84.97 202.2339,162.8739 183.6639,200.7039 " fill="none" id="aws_region-to-aws_iam_user" style="stroke:#1A83AF;stroke-width:2.0;"/><polygon fill="#1A83AF" points="181.02,206.09,188.5766,199.7735,183.2233,201.6016,181.3952,196.2483,181.02,206.09" style="stroke:#1A83AF;stroke-width:2.0;"/></g><!--SRC=[ZP31Qi9048RlFiM2Po6fjEgb40LfBr9gRwN8c9tL9Sbkc5qhjlJTwqPRDfjelFxpCVytivKS6HQbFR02YpMIwPbCgX882fOGwVrCvvfONmWGmr4ud6jbEu455CYUCFz4ArC8YRUjJ3E5nh0xRpI5DDkGtYb-Mcy9b3cEK5cFckLWJ68joVNEeYV39-kn424PBkqFUJnwm0QcYIETaIYAU3m9aSwggtV_4qlvXIpsdxRG5XkQZOgAkchf24-oSUZV_ABZ2t0krORTUzdhoOaKKYrVRe7hlQC5vCQlCHO9jJsKE6jSXPCn5wDM-FaIdBhFCTYRbOHYvOYIVVT-WhpKkKmFBGFIERR4EtCyg1uJRgHMLLXl6xptusGyJEOVWyUWy1RILVLgEhSih0IxmBDoArOPTL8tBdFQdP1J_WK0]--></g></svg>

<svg xmlns="http://www.w3.org/2000/svg" width="522" height="352" viewBox="0 0 522 352"><rect width="173" height="39.789" x="7" y="106.79" fill="#3D176E" rx="2.5" ry="2.5" style="stroke:#000d19;stroke-width:.5"/><circle cx="22" cy="126.684" r="11" fill="#ADD1B2" style="stroke:#181818;stroke-width:1"/><path d="M24.969 132.325q-.578.297-1.219.438-.64.156-1.344.156-2.5 0-3.828-1.64-1.312-1.657-1.312-4.782t1.312-4.781q1.328-1.656 3.828-1.656.703 0 1.344.156.656.156 1.219.453v2.719q-.625-.579-1.219-.844-.594-.281-1.219-.281-1.343 0-2.031 1.078-.687 1.062-.687 3.156t.687 3.172q.688 1.062 2.031 1.062.625 0 1.219-.265.594-.281 1.219-.86z"/><text x="41" y="132.57" fill="#D9B8FF" font-family="Helvetica" font-size="17" textLength="131">aws_iam_group</text><rect width="173" height="39.789" x="151" y="306.37" fill="#3D176E" rx="2.5" ry="2.5" style="stroke:#000d19;stroke-width:.5"/><circle cx="166" cy="326.264" r="11" fill="#ADD1B2" style="stroke:#181818;stroke-width:1"/><path d="M168.969 331.905q-.578.297-1.219.438-.64.156-1.344.156-2.5 0-3.828-1.64-1.312-1.657-1.312-4.782t1.312-4.781q1.328-1.656 3.828-1.656.703 0 1.344.156.656.156 1.219.453v2.719q-.625-.579-1.219-.844-.594-.281-1.219-.281-1.344 0-2.031 1.078-.687 1.062-.687 3.156t.687 3.172q.688 1.062 2.031 1.062.625 0 1.219-.265.594-.281 1.219-.86z"/><text x="185" y="332.15" fill="#D9B8FF" font-family="Helvetica" font-size="17" textLength="131">aws_iam_policy</text><rect width="157" height="39.789" x="358" y="206.58" fill="#3D176E" rx="2.5" ry="2.5" style="stroke:#000d19;stroke-width:.5"/><circle cx="373" cy="226.475" r="11" fill="#ADD1B2" style="stroke:#181818;stroke-width:1"/><path d="M375.969 232.115q-.578.297-1.219.438-.64.156-1.344.156-2.5 0-3.828-1.64-1.312-1.657-1.312-4.782t1.312-4.781q1.328-1.656 3.828-1.656.703 0 1.344.156.656.156 1.219.453v2.719q-.625-.578-1.219-.844-.594-.281-1.219-.281-1.344 0-2.031 1.078-.687 1.062-.687 3.156t.687 3.172q.688 1.062 2.031 1.062.625 0 1.219-.265.594-.281 1.219-.86z"/><text x="392" y="232.36" fill="#D9B8FF" font-family="Helvetica" font-size="17" textLength="115">aws_iam_role</text><rect width="161" height="39.789" x="91" y="206.58" fill="#3D176E" rx="2.5" ry="2.5" style="stroke:#000d19;stroke-width:.5"/><circle cx="106" cy="226.475" r="11" fill="#ADD1B2" style="stroke:#181818;stroke-width:1"/><path d="M108.969 232.115q-.578.297-1.219.438-.64.156-1.344.156-2.5 0-3.828-1.64-1.312-1.657-1.312-4.782t1.312-4.781q1.328-1.656 3.828-1.656.703 0 1.344.156.656.156 1.219.453v2.719q-.625-.578-1.219-.844-.594-.281-1.219-.281-1.344 0-2.031 1.078-.687 1.062-.687 3.156t.687 3.172q.688 1.062 2.031 1.062.625 0 1.219-.265.594-.281 1.219-.86z"/><text x="125" y="232.36" fill="#D9B8FF" font-family="Helvetica" font-size="17" textLength="119">aws_iam_user</text><rect width="137" height="39.789" x="200" y="7" fill="#3D176E" rx="2.5" ry="2.5" style="stroke:#000d19;stroke-width:.5"/><circle cx="215" cy="26.895" r="11" fill="#ADD1B2" style="stroke:#181818;stroke-width:1"/><path d="M217.969 32.535q-.578.297-1.219.438-.64.156-1.344.156-2.5 0-3.828-1.64-1.312-1.657-1.312-4.782t1.312-4.781q1.328-1.656 3.828-1.656.703 0 1.344.156.656.156 1.219.453v2.719q-.625-.578-1.219-.844-.594-.281-1.219-.281-1.344 0-2.031 1.078-.687 1.062-.687 3.156t.687 3.172q.688 1.062 2.031 1.062.625 0 1.219-.265.594-.281 1.219-.86z"/><text x="234" y="32.78" fill="#D9B8FF" font-family="Helvetica" font-size="17" textLength="95">aws_region</text><path fill="none" d="M82.7 146.94c-12.36 24.88-28.55 68.65-9.2 99.43 18.33 29.16 45.166 45.672 76.396 57.452" style="stroke:#1a83af;stroke-width:2"/><path fill="#1A83AF" d="m155.51 305.94-7.01-6.919 2.332 5.154-5.155 2.331z" style="stroke:#1a83af;stroke-width:2"/><path fill="none" d="M108.91 147.01c13.67 17.14 29.81 37.358 43.47 54.498" style="stroke:#1a83af;stroke-width:2"/><path fill="#1A83AF" d="m156.12 206.2-2.481-9.531-.635 5.62-5.621-.634z" style="stroke:#1a83af;stroke-width:2"/><path fill="none" d="M397.18 246.8c-34.88 17.14-80.195 39.403-115.065 56.543" style="stroke:#1a83af;stroke-width:2"/><path fill="#1A83AF" d="m276.73 305.99 9.841-.38-5.354-1.826 1.826-5.354z" style="stroke:#1a83af;stroke-width:2"/><path fill="none" d="M184.54 246.8c11.57 17.14 25.035 37.076 36.595 54.216" style="stroke:#1a83af;stroke-width:2"/><path fill="#1A83AF" d="m224.49 305.99-1.716-9.698-1.08 5.553-5.553-1.08z" style="stroke:#1a83af;stroke-width:2"/><path fill="none" d="M233.93 47.22c-30.68 17.14-70.032 39.134-100.692 56.264" style="stroke:#1a83af;stroke-width:2"/><path fill="#1A83AF" d="m128 106.41 9.808-.898-5.443-1.54 1.54-5.444z" style="stroke:#1a83af;stroke-width:2"/><path fill="none" d="M271.09 47.13c4.62 38.34 12.54 126.83-1.59 199.24-4.16 21.33-11.432 38.791-19.142 54.391" style="stroke:#1a83af;stroke-width:2"/><path fill="#1A83AF" d="m247.7 306.14 7.574-6.296-5.359 1.814-1.813-5.359z" style="stroke:#1a83af;stroke-width:2"/><path fill="none" d="M284.91 47.2c32.12 37.77 99.053 116.49 131.223 154.32" style="stroke:#1a83af;stroke-width:2"/><path fill="#1A83AF" d="m420.02 206.09-2.783-9.447-.456 5.638-5.639-.456z" style="stroke:#1a83af;stroke-width:2"/><path fill="none" d="M259.02 47.2c-18.54 37.77-56.786 115.674-75.356 153.504" style="stroke:#1a83af;stroke-width:2"/><path fill="#1A83AF" d="m181.02 206.09 7.557-6.316-5.354 1.828-1.828-5.354z" style="stroke:#1a83af;stroke-width:2"/></svg>
